; generated by PrusaSlicer 2.1.1+win64 on 2022-02-12 at 15:38:32 UTC


;
;

;
;
; 

; external perimeters extrusion width = 0.45mm
; perimeters extrusion width = 0.45mm
; infill extrusion width = 0.45mm
; solid infill extrusion width = 0.45mm
; top infill extrusion width = 0.40mm
; first layer extrusion width = 0.42mm

M73 P0 R75
M201 X1250 Y1250 Z400 E5000 ; sets maximum accelerations, mm/sec^2
M203 X180 Y180 Z12 E80 ; sets maximum feedrates, mm/sec
M204 P1250 R1250 T1250 ; sets acceleration (P, T) and retract acceleration (R), mm/sec^2
M205 X8.00 Y8.00 Z2.00 E10.00 ; sets the jerk limits, mm/sec
M205 S0 T0 ; sets the minimum extruding and travel feed rate, mm/sec
M107
G90 ; use absolute coordinates
M83 ; extruder relative mode
M104 S170 ; set extruder temp for bed leveling
M140 S100 ; set bed temp
M109 R170 ; wait for bed leveling temp
M190 S100 ; wait for bed temp
G28 ; home all without mesh bed level
G29 ; mesh bed leveling 
M104 S250 ; set extruder temp
G92 E0.0
G1 Y-2.0 X179 F2400
G1 Z3 F720
M109 S250 ; wait for extruder temp

; intro line
G1 X170 F1000
G1 Z0.2 F720
G1 X110.0 E8.0 F900
M73 P0 R75
G1 X40.0 E10.0 F700
G92 E0.0

M221 S95 ; set flow
G21 ; set units to millimeters
G90 ; use absolute coordinates
M83 ; use relative distances for extrusion
M900 K0.2 ; Filament gcode LA 1.5
; ; Filament gcode LA 1.0
;BEFORE_LAYER_CHANGE
G92 E0.0
;0.2


G1 Z0.200 F9000.000
;AFTER_LAYER_CHANGE
;0.2
G1 E-3.20000 F4200.00000
G1 Z0.400 F9000.000
G1 X80.102 Y18.900
G1 Z0.200
G1 E3.20000 F2400.00000
M204 S800
G1 F450
G1 X80.320 Y18.174 E0.02375
G1 X80.643 Y17.489 E0.02375
G1 X81.068 Y16.856 E0.02392
G1 X81.579 Y16.297 E0.02375
G1 X82.172 Y15.816 E0.02392
G1 X82.830 Y15.430 E0.02392
G1 X83.533 Y15.148 E0.02375
G1 X84.242 Y14.978 E0.02288
G1 X84.963 Y14.911 E0.02270
G1 X94.934 Y14.909 E0.31263
G1 X95.909 Y15.005 E0.03071
G1 X96.842 Y15.283 E0.03054
G1 X97.705 Y15.734 E0.03054
G1 X98.467 Y16.341 E0.03054
G1 X99.099 Y17.082 E0.03054
G1 X99.579 Y17.929 E0.03054
G1 X99.889 Y18.859 E0.03071
G1 X100.016 Y19.824 E0.03054
G1 X100.007 Y160.345 E4.40594
G1 X99.898 Y161.100 E0.02392
G1 X99.678 Y161.831 E0.02392
G1 X99.351 Y162.520 E0.02392
G1 X98.921 Y163.157 E0.02410
G1 X98.401 Y163.722 E0.02410
G1 X97.805 Y164.200 E0.02392
G1 X97.145 Y164.582 E0.02392
G1 X96.436 Y164.862 E0.02392
G1 X95.736 Y165.026 E0.02253
G1 X95.020 Y165.090 E0.02253
G1 X84.727 Y165.079 E0.32276
G1 X83.803 Y164.930 E0.02932
G1 X82.923 Y164.615 E0.02932
G1 X82.115 Y164.144 E0.02932
G1 X81.407 Y163.533 E0.02932
G1 X80.826 Y162.808 E0.02915
G1 X80.384 Y161.984 E0.02932
G1 X80.100 Y161.093 E0.02932
G1 X79.984 Y160.165 E0.02932
G1 X79.993 Y19.655 E4.40559
G1 X80.093 Y18.959 E0.02204
M204 S1250
G1 E-2.24000 F4200.00000
G1 F7200
G1 X80.320 Y18.174 E-0.45262
G1 X80.643 Y17.489 E-0.41971
G1 X80.683 Y17.430 E-0.03967
G1 E-0.04800 F4200.00000
G1 Z0.400 F9000.000
G1 X84.059 Y15.367
G1 Z0.200
G1 E3.20000 F2400.00000
M204 S800
G1 F450
G1 X95.681 Y15.320 E0.36442
G1 X96.508 Y15.522 E0.02669
G1 X97.284 Y15.872 E0.02668
G1 X98.491 Y16.889 E0.04950
G1 X99.281 Y18.106 E0.04549
G1 X99.642 Y19.489 E0.04481
G1 X99.642 Y160.510 E4.42163
M73 P1 R73
G1 X99.310 Y161.827 E0.04257
G1 X98.584 Y163.011 E0.04355
G1 X97.980 Y163.615 E0.02678
G1 X97.398 Y164.063 E0.02303
G1 X95.942 Y164.633 E0.04901
G1 X84.567 Y164.714 E0.35667
G1 X83.246 Y164.382 E0.04273
G1 X82.061 Y163.655 E0.04356
G1 X81.457 Y163.051 E0.02678
G1 X81.001 Y162.460 E0.02340
G1 X80.358 Y160.547 E0.06330
G1 X80.358 Y19.490 E4.42273
G1 X80.690 Y18.173 E0.04257
G1 X81.417 Y16.989 E0.04355
G1 X82.021 Y16.385 E0.02678
G1 X82.602 Y15.937 E0.02303
G1 X84.003 Y15.389 E0.04716
M204 S1250
G1 X84.138 Y15.740 F9000.000
M204 S800
G1 F450
G1 X95.615 Y15.692 E0.35986
G1 X96.369 Y15.873 E0.02431
G1 X97.104 Y16.204 E0.02526
G1 X98.225 Y17.158 E0.04617
G1 X98.924 Y18.232 E0.04017
G1 X99.265 Y19.513 E0.04157
G1 X99.265 Y160.486 E4.42009
G1 X98.952 Y161.705 E0.03946
G1 X98.302 Y162.759 E0.03885
G1 X97.722 Y163.339 E0.02571
G1 X97.190 Y163.748 E0.02101
G1 X95.839 Y164.269 E0.04541
G1 X84.590 Y164.337 E0.35273
G1 X83.367 Y164.024 E0.03956
G1 X82.313 Y163.373 E0.03885
G1 X81.733 Y162.794 E0.02571
G1 X81.319 Y162.256 E0.02127
G1 X80.735 Y160.516 E0.05754
G1 X80.735 Y19.514 E4.42101
M73 P3 R72
G1 X81.048 Y18.295 E0.03946
G1 X81.699 Y17.241 E0.03885
G1 X82.278 Y16.661 E0.02571
G1 X82.810 Y16.252 E0.02101
G1 X84.082 Y15.762 E0.04276
M204 S1250
G1 X84.216 Y16.114 F9000.000
M204 S800
G1 F450
G1 X84.263 Y16.096 E0.00158
G1 X95.549 Y16.063 E0.35387
G1 X96.263 Y16.235 E0.02303
G1 X96.922 Y16.536 E0.02271
G1 X97.958 Y17.426 E0.04282
G1 X98.591 Y18.410 E0.03669
G1 X98.888 Y19.538 E0.03655
G1 X98.888 Y160.462 E4.41860
G1 X98.615 Y161.533 E0.03463
G1 X98.019 Y162.509 E0.03586
G1 X97.464 Y163.063 E0.02460
G1 X96.984 Y163.431 E0.01897
G1 X95.738 Y163.904 E0.04179
G1 X84.612 Y163.959 E0.34885
G1 X83.539 Y163.687 E0.03469
G1 X82.563 Y163.091 E0.03586
G1 X82.008 Y162.536 E0.02460
G1 X81.638 Y162.052 E0.01912
G1 X81.113 Y160.485 E0.05179
G1 X81.113 Y19.538 E4.41932
G1 X81.385 Y18.467 E0.03463
G1 X81.981 Y17.491 E0.03586
G1 X82.536 Y16.937 E0.02460
G1 X83.016 Y16.569 E0.01897
G1 X84.160 Y16.135 E0.03834
M204 S1250
G1 X84.291 Y16.488 F9000.000
M204 S800
G1 F450
G1 X84.363 Y16.461 E0.00239
G1 X95.485 Y16.436 E0.34872
G1 X96.124 Y16.586 E0.02060
G1 X96.741 Y16.867 E0.02125
G1 X97.691 Y17.692 E0.03945
G1 X98.235 Y18.537 E0.03149
G1 X98.511 Y19.563 E0.03331
G1 X98.511 Y160.438 E4.41704
M73 P4 R71
G1 X98.258 Y161.410 E0.03149
G1 X97.737 Y162.258 E0.03119
G1 X97.207 Y162.788 E0.02350
G1 X96.778 Y163.114 E0.01688
G1 X95.638 Y163.539 E0.03816
G1 X84.635 Y163.582 E0.34498
G1 X83.662 Y163.329 E0.03153
G1 X82.814 Y162.808 E0.03119
G1 X82.284 Y162.278 E0.02350
G1 X81.957 Y161.848 E0.01695
G1 X81.490 Y160.455 E0.04607
G1 X81.490 Y19.562 E4.41760
G1 X81.742 Y18.590 E0.03149
G1 X82.263 Y17.742 E0.03119
G1 X82.793 Y17.212 E0.02350
G1 X83.222 Y16.886 E0.01688
G1 X84.235 Y16.509 E0.03390
M204 S1250
G1 X84.364 Y16.862 F9000.000
M204 S800
G1 F450
G1 X84.461 Y16.826 E0.00322
G1 X95.420 Y16.808 E0.34362
G1 X96.019 Y16.949 E0.01929
G1 X96.557 Y17.197 E0.01859
G1 X97.421 Y17.957 E0.03607
G1 X97.900 Y18.714 E0.02809
G1 X98.133 Y19.587 E0.02835
G1 X98.133 Y160.413 E4.41549
G1 X97.901 Y161.285 E0.02831
G1 X97.455 Y162.006 E0.02658
G1 X96.949 Y162.512 E0.02241
G1 X96.574 Y162.795 E0.01476
G1 X95.540 Y163.174 E0.03452
G1 X84.660 Y163.205 E0.34114
G1 X83.787 Y162.973 E0.02833
G1 X83.066 Y162.527 E0.02658
G1 X82.560 Y162.021 E0.02241
G1 X82.276 Y161.645 E0.01477
G1 X81.867 Y160.424 E0.04038
G1 X81.867 Y19.587 E4.41585
M73 P6 R70
G1 X82.099 Y18.715 E0.02831
G1 X82.545 Y17.994 E0.02658
G1 X83.051 Y17.488 E0.02241
G1 X83.426 Y17.204 E0.01476
G1 X84.308 Y16.882 E0.02942
M204 S1250
G1 X84.434 Y17.236 F9000.000
M204 S800
G1 F450
G1 X84.556 Y17.192 E0.00407
G1 X95.357 Y17.180 E0.33865
G1 X95.879 Y17.299 E0.01678
G1 X96.373 Y17.528 E0.01706
G1 X97.150 Y18.221 E0.03265
G1 X97.545 Y18.841 E0.02306
G1 X97.756 Y19.613 E0.02510
G1 X97.756 Y160.387 E4.41386
G1 X97.545 Y161.158 E0.02508
G1 X97.173 Y161.755 E0.02203
G1 X96.693 Y162.235 E0.02132
G1 X96.371 Y162.476 E0.01259
G1 X95.444 Y162.808 E0.03087
G1 X84.685 Y162.828 E0.33734
G1 X83.914 Y162.617 E0.02509
G1 X83.317 Y162.245 E0.02203
G1 X82.837 Y161.764 E0.02132
G1 X82.596 Y161.444 E0.01257
G1 X82.244 Y160.394 E0.03472
G1 X82.244 Y19.613 E4.41408
G1 X82.455 Y18.842 E0.02508
G1 X82.827 Y18.245 E0.02203
G1 X83.308 Y17.765 E0.02132
G1 X83.629 Y17.524 E0.01260
G1 X84.378 Y17.256 E0.02493
M204 S1250
G1 X84.501 Y17.611 F9000.000
M204 S800
G1 F450
G1 X84.649 Y17.559 E0.00493
G1 X95.297 Y17.553 E0.33383
G1 X95.740 Y17.650 E0.01423
G1 X96.188 Y17.858 E0.01548
G1 X96.878 Y18.483 E0.02920
G1 X97.190 Y18.971 E0.01818
G1 X97.379 Y19.640 E0.02179
G1 X97.379 Y160.360 E4.41217
M73 P7 R69
G1 X97.190 Y161.029 E0.02179
G1 X96.892 Y161.503 E0.01755
G1 X96.436 Y161.959 E0.02022
G1 X96.170 Y162.156 E0.01037
G1 X95.351 Y162.441 E0.02721
G1 X84.712 Y162.451 E0.33358
G1 X84.043 Y162.262 E0.02179
G1 X83.569 Y161.964 E0.01755
G1 X83.113 Y161.508 E0.02022
G1 X82.917 Y161.243 E0.01034
G1 X82.621 Y160.363 E0.02911
G1 X82.621 Y19.640 E4.41227
G1 X82.810 Y18.971 E0.02179
G1 X83.108 Y18.497 E0.01755
G1 X83.564 Y18.041 E0.02022
G1 X83.830 Y17.844 E0.01037
G1 X84.444 Y17.630 E0.02040
M204 S1250
G1 X84.564 Y17.985 F9000.000
M204 S800
G1 F450
G1 X84.740 Y17.926 E0.00582
G1 X95.274 Y17.930 E0.33029
G1 X95.634 Y18.013 E0.01157
G1 X95.999 Y18.185 E0.01268
G1 X96.604 Y18.743 E0.02580
G1 X96.836 Y19.105 E0.01347
G1 X97.002 Y19.668 E0.01841
G1 X97.002 Y160.332 E4.41042
G1 X96.836 Y160.896 E0.01842
G1 X96.611 Y161.250 E0.01318
G1 X96.180 Y161.681 E0.01911
G1 X95.972 Y161.834 E0.00808
G1 X95.260 Y162.074 E0.02354
G1 X84.740 Y162.074 E0.32986
G1 X84.176 Y161.908 E0.01842
G1 X83.822 Y161.683 E0.01318
G1 X83.391 Y161.252 E0.01911
G1 X83.238 Y161.044 E0.00808
G1 X82.998 Y160.332 E0.02354
G1 X82.998 Y19.668 E4.41043
M73 P8 R68
G1 X83.164 Y19.104 E0.01842
G1 X83.389 Y18.750 E0.01318
G1 X83.820 Y18.319 E0.01911
G1 X84.028 Y18.166 E0.00808
G1 X84.507 Y18.005 E0.01585
M204 S1250
G1 X84.225 Y18.488 F9000.000
M204 S800
G1 F450
G1 X84.771 Y18.303 E0.01806
G1 X95.252 Y18.307 E0.32864
G1 X95.490 Y18.362 E0.00767
G1 X95.810 Y18.513 E0.01109
G1 X96.329 Y19.001 E0.02233
G1 X96.484 Y19.242 E0.00898
G1 X96.625 Y19.698 E0.01495
G1 X96.625 Y160.302 E4.40856
G1 X96.484 Y160.758 E0.01496
G1 X96.330 Y160.998 E0.00892
G1 X95.924 Y161.404 E0.01800
G1 X95.775 Y161.512 E0.00579
G1 X95.229 Y161.697 E0.01806
G1 X84.769 Y161.697 E0.32796
G1 X84.314 Y161.556 E0.01496
G1 X84.074 Y161.402 E0.00892
G1 X83.668 Y160.996 E0.01800
G1 X83.560 Y160.846 E0.00579
G1 X83.375 Y160.301 E0.01806
G1 X83.375 Y19.698 E4.40852
G1 X83.516 Y19.242 E0.01496
G1 X83.670 Y19.002 E0.00892
G1 X84.076 Y18.596 E0.01800
G1 X84.177 Y18.524 E0.00391
M204 S1250
G1 X84.420 Y18.812 F9000.000
M204 S800
G1 F450
G1 X84.803 Y18.680 E0.01269
G1 X95.230 Y18.684 E0.32695
G1 X95.347 Y18.711 E0.00377
G1 X95.620 Y18.840 E0.00947
G1 X96.051 Y19.257 E0.01880
G1 X96.135 Y19.385 E0.00479
G1 X96.248 Y19.729 E0.01136
G1 X96.248 Y160.271 E4.40658
M73 P10 R67
G1 X96.135 Y160.615 E0.01136
G1 X96.051 Y160.744 E0.00484
G1 X95.670 Y161.125 E0.01686
G1 X95.580 Y161.188 E0.00345
G1 X95.198 Y161.320 E0.01270
G1 X84.801 Y161.320 E0.32597
G1 X84.457 Y161.207 E0.01136
G1 X84.328 Y161.122 E0.00484
G1 X83.947 Y160.742 E0.01686
G1 X83.884 Y160.652 E0.00345
G1 X83.752 Y160.269 E0.01270
G1 X83.752 Y19.729 E4.40653
G1 X83.865 Y19.385 E0.01136
G1 X83.950 Y19.256 E0.00484
G1 X84.371 Y18.847 E0.01841
M204 S1250
G1 X84.609 Y19.139 F9000.000
M204 S800
G1 F450
G1 X84.836 Y19.057 E0.00757
G1 X95.178 Y19.057 E0.32426
G1 X95.428 Y19.167 E0.00856
G1 X95.771 Y19.510 E0.01522
G1 X95.871 Y19.764 E0.00856
G1 X95.871 Y160.236 E4.40437
G1 X95.771 Y160.490 E0.00856
G1 X95.418 Y160.843 E0.01566
G1 X95.164 Y160.943 E0.00856
G1 X84.836 Y160.943 E0.32381
G1 X84.582 Y160.843 E0.00856
G1 X84.229 Y160.490 E0.01566
G1 X84.129 Y160.236 E0.00856
G1 X84.129 Y19.764 E4.40437
M73 P11 R66
G1 X84.229 Y19.510 E0.00856
G1 X84.562 Y19.176 E0.01480
M204 S1250
G1 X84.809 Y19.463 F9000.000
M204 S800
G1 F450
G1 X84.878 Y19.434 E0.00235
G1 X95.122 Y19.434 E0.32119
G1 X95.191 Y19.463 E0.00235
G1 X95.465 Y19.737 E0.01215
G1 X95.494 Y19.806 E0.00235
G1 X95.494 Y160.194 E4.40175
G1 X95.465 Y160.263 E0.00235
G1 X95.191 Y160.537 E0.01215
G1 X95.122 Y160.566 E0.00235
G1 X84.878 Y160.566 E0.32119
G1 X84.809 Y160.537 E0.00235
G1 X84.535 Y160.263 E0.01215
G1 X84.506 Y160.194 E0.00235
G1 X84.506 Y19.806 E4.40175
G1 X84.535 Y19.737 E0.00235
G1 X84.766 Y19.506 E0.01027
M204 S1250
G1 X84.994 Y19.811 F9000.000
M204 S800
G1 F450
G1 X95.006 Y19.811 E0.31394
G1 X95.117 Y19.922 E0.00490
G1 X95.117 Y160.078 E4.39450
M73 P13 R65
G1 X95.006 Y160.189 E0.00490
G1 X84.994 Y160.189 E0.31394
G1 X84.883 Y160.078 E0.00490
G1 X84.883 Y19.922 E4.39450
G1 X84.951 Y19.854 E0.00302
M204 S1250
G1 X85.282 Y20.210 F9000.000
M204 S800
G1 F450
G1 X94.718 Y20.210 E0.29587
G1 X94.718 Y159.790 E4.37643
G1 X85.282 Y159.790 E0.29587
G1 X85.282 Y20.270 E4.37455
M204 S1250
G1 X85.633 Y20.402 F9000.000
G1 X85.659 Y20.587
M204 S800
G1 F450
G1 X94.341 Y20.587 E0.27223
M73 P14 R64
G1 X94.341 Y159.413 E4.35279
G1 X85.659 Y159.413 E0.27223
G1 X85.659 Y20.647 E4.35091
M204 S1250
G1 E-2.24000 F4200.00000
G1 F7200
G1 X87.305 Y20.636 E-0.91200
G1 E-0.04800 F4200.00000
G1 Z0.400 F9000.000
G1 X94.228 Y21.465
G1 Z0.200
G1 E3.20000 F2400.00000
M204 S800
G1 F450
G1 X93.633 Y20.870 E0.02648
G1 X93.098 Y20.870 E0.01683
G1 X94.058 Y21.830 E0.04273
G1 X94.058 Y22.365 E0.01683
G1 X92.563 Y20.870 E0.06653
G1 X92.028 Y20.870 E0.01683
G1 X94.058 Y22.900 E0.09034
G1 X94.058 Y23.435 E0.01683
G1 X91.493 Y20.870 E0.11414
G1 X90.958 Y20.870 E0.01683
G1 X94.058 Y23.970 E0.13794
G1 X94.058 Y24.506 E0.01683
G1 X90.423 Y20.870 E0.16174
G1 X89.888 Y20.870 E0.01683
G1 X94.058 Y25.041 E0.18554
G1 X94.058 Y25.576 E0.01683
G1 X89.353 Y20.870 E0.20934
G1 X88.818 Y20.870 E0.01683
G1 X94.058 Y26.111 E0.23314
G1 X94.058 Y26.646 E0.01683
G1 X88.283 Y20.870 E0.25695
G1 X87.748 Y20.870 E0.01683
G1 X94.058 Y27.181 E0.28075
G1 X94.058 Y27.716 E0.01683
G1 X87.213 Y20.870 E0.30455
G1 X86.678 Y20.870 E0.01683
G1 X94.058 Y28.251 E0.32835
G1 X94.058 Y28.786 E0.01683
G1 X86.143 Y20.870 E0.35215
G1 X85.942 Y20.870 E0.00632
G1 X85.942 Y21.204 E0.01051
G1 X94.058 Y29.321 E0.36109
G1 X94.058 Y29.856 E0.01683
G1 X85.942 Y21.739 E0.36109
G1 X85.942 Y22.274 E0.01683
G1 X94.058 Y30.391 E0.36109
G1 X94.058 Y30.926 E0.01683
G1 X85.942 Y22.809 E0.36109
G1 X85.942 Y23.344 E0.01683
G1 X94.058 Y31.461 E0.36109
G1 X94.058 Y31.996 E0.01683
G1 X85.942 Y23.879 E0.36109
M73 P15 R63
G1 X85.942 Y24.414 E0.01683
G1 X94.058 Y32.531 E0.36109
G1 X94.058 Y33.066 E0.01683
G1 X85.942 Y24.949 E0.36109
G1 X85.942 Y25.484 E0.01683
G1 X94.058 Y33.601 E0.36109
G1 X94.058 Y34.136 E0.01683
G1 X85.942 Y26.019 E0.36109
G1 X85.942 Y26.554 E0.01683
G1 X94.058 Y34.671 E0.36109
G1 X94.058 Y35.206 E0.01683
G1 X85.942 Y27.089 E0.36109
G1 X85.942 Y27.624 E0.01683
G1 X94.058 Y35.741 E0.36109
G1 X94.058 Y36.276 E0.01683
G1 X85.942 Y28.159 E0.36109
G1 X85.942 Y28.694 E0.01683
G1 X94.058 Y36.811 E0.36109
G1 X94.058 Y37.346 E0.01683
G1 X85.942 Y29.229 E0.36109
G1 X85.942 Y29.764 E0.01683
G1 X94.058 Y37.881 E0.36109
G1 X94.058 Y38.416 E0.01683
G1 X85.942 Y30.299 E0.36109
G1 X85.942 Y30.834 E0.01683
G1 X94.058 Y38.951 E0.36109
G1 X94.058 Y39.486 E0.01683
G1 X85.942 Y31.369 E0.36109
G1 X85.942 Y31.904 E0.01683
G1 X94.058 Y40.021 E0.36109
G1 X94.058 Y40.556 E0.01683
G1 X85.942 Y32.439 E0.36109
G1 X85.942 Y32.975 E0.01683
G1 X94.058 Y41.091 E0.36109
G1 X94.058 Y41.626 E0.01683
G1 X85.942 Y33.510 E0.36109
G1 X85.942 Y34.045 E0.01683
G1 X94.058 Y42.161 E0.36109
G1 X94.058 Y42.696 E0.01683
G1 X85.942 Y34.580 E0.36109
G1 X85.942 Y35.115 E0.01683
G1 X94.058 Y43.231 E0.36109
G1 X94.058 Y43.766 E0.01683
G1 X85.942 Y35.650 E0.36109
G1 X85.942 Y36.185 E0.01683
G1 X94.058 Y44.301 E0.36109
G1 X94.058 Y44.836 E0.01683
G1 X85.942 Y36.720 E0.36109
G1 X85.942 Y37.255 E0.01683
G1 X94.058 Y45.371 E0.36109
G1 X94.058 Y45.906 E0.01683
G1 X85.942 Y37.790 E0.36109
G1 X85.942 Y38.325 E0.01683
G1 X94.058 Y46.441 E0.36109
G1 X94.058 Y46.976 E0.01683
G1 X85.942 Y38.860 E0.36109
G1 X85.942 Y39.395 E0.01683
G1 X94.058 Y47.511 E0.36109
G1 X94.058 Y48.046 E0.01683
G1 X85.942 Y39.930 E0.36109
G1 X85.942 Y40.465 E0.01683
G1 X94.058 Y48.581 E0.36109
G1 X94.058 Y49.116 E0.01683
G1 X85.942 Y41.000 E0.36109
G1 X85.942 Y41.535 E0.01683
G1 X94.058 Y49.652 E0.36109
G1 X94.058 Y50.187 E0.01683
G1 X85.942 Y42.070 E0.36109
G1 X85.942 Y42.605 E0.01683
G1 X94.058 Y50.722 E0.36109
G1 X94.058 Y51.257 E0.01683
G1 X85.942 Y43.140 E0.36109
G1 X85.942 Y43.675 E0.01683
G1 X94.058 Y51.792 E0.36109
G1 X94.058 Y52.327 E0.01683
G1 X85.942 Y44.210 E0.36109
M73 P17 R62
G1 X85.942 Y44.745 E0.01683
G1 X94.058 Y52.862 E0.36109
G1 X94.058 Y53.397 E0.01683
G1 X85.942 Y45.280 E0.36109
G1 X85.942 Y45.815 E0.01683
G1 X94.058 Y53.932 E0.36109
G1 X94.058 Y54.467 E0.01683
G1 X85.942 Y46.350 E0.36109
G1 X85.942 Y46.885 E0.01683
